X:185
T: DER WINTER IST EIN RECHTER MANN
N: B0220
O: Europa, Mitteleuropa, Deutschland
R: Jahreszeiten - Lied, Winter
M: 4/4
L: 1/8
K: Bb
F2 | B2B2B2AB | c2c2c2
B2 | A2c2f2e2 | d2c2B2
F2 | d2dcB2B2 | e2edc2
c2 | f2B2A2B2 | d4c4 | B4z2

@@@ Tune index: 1988
